src/status/scalable/notification-disabled.svg

<svg viewBox="0 0 48 48" xmlns="http://www.w3.org/2000/svg">
 <path d="m24 4a14 16.5 0 0 0-14 16.5v8.5l-6 8h20 20l-6-8v-8.5a14 16.5 0 0 0-14-16.5m-7.52 35c1.108 2.896 4.03 5 7.5 5s6.392-2.104 7.5-5h-15z" fill="#eceff4" opacity=".5"/>
 <path d="m24.01 45.991c3.084-0.098 3.158 6e-3 4.709-1.571 1.11-1.111 5.129-5.179 6.239-6.289 2.22 2.221 4.099 4.068 6.318 6.289 1.588 1.577 1.542 1.611 4.709 1.571-0.028-3.102 0.018-3.135-1.57-4.712-2.22-2.221-4.099-4.068-6.318-6.289 1.754-1.804 4.099-4.056 6.318-6.277 1.588-1.565 1.622-1.497 1.57-4.712-3.087 0.074-3.121 6e-3 -4.709 1.571-2.22 2.221-4.881 4.838-6.318 6.277-2.22-2.221-4.02-4.056-6.239-6.277-1.551-1.565-1.591-1.473-4.709-1.571-0.021 3.24 0.018 3.148 1.57 4.712 1.11 1.111 5.129 5.166 6.239 6.277-2.22 2.221-4.02 4.068-6.239 6.289-1.551 1.577-1.625 1.473-1.57 4.712z" fill="#bf616a" fill-rule="evenodd"/>
</svg>

<svg xmlns="http://www.w3.org/2000/svg" viewBox="0 0 48 48">
 <path d="M 24 4 A 14 16.5 0 0 0 10 20.5 L 10 29 4 37 24 37 44 37 38 29 38 20.5 A 14 16.5 0 0 0 24 4 M 16.48 39 c 1.108 2.896 4.03 5 7.5 5 3.47 0 6.392 -2.104 7.5 -5 l -15 0 z" style="fill:#eceff4;opacity:0.5;fill-opacity:1"/>
 <path d="m 24.01 45.991 c 3.084 -0.098 3.158 0.006 4.709 -1.571 1.11 -1.111 5.129 -5.179 6.239 -6.289 2.22 2.221 4.099 4.068 6.318 6.289 1.588 1.577 1.542 1.611 4.709 1.571 -0.028 -3.102 0.018 -3.135 -1.57 -4.712 -2.22 -2.221 -4.099 -4.068 -6.318 -6.289 1.754 -1.804 4.099 -4.056 6.318 -6.277 1.588 -1.565 1.622 -1.497 1.57 -4.712 -3.087 0.074 -3.121 0.006 -4.709 1.571 -2.22 2.221 -4.881 4.838 -6.318 6.277 -2.22 -2.221 -4.02 -4.056 -6.239 -6.277 c -1.551 -1.565 -1.591 -1.473 -4.709 -1.571 c -0.021 3.24 0.018 3.148 1.57 4.712 1.11 1.111 5.129 5.166 6.239 6.277 -2.22 2.221 -4.02 4.068 -6.239 6.289 -1.551 1.577 -1.625 1.473 -1.57 4.712 z" style="fill:#bf616a;fill-opacity:1;fill-rule:evenodd"/>
</svg>
